X:122
T:Jolly Wagoner - Olver
%%VWML:SBG-1-2-174-0
F:http://www.vwml.org/record/SBG/1/2/174
Z:Original Sibelius transcriptions by M. & S. Graebe
M:4/8
I:linebreak $
K:G
V:1 treble nm="P1"
V:1
 G | G e d c | BAGF | GG AF | D3 D | B BBB | cBA G | cBAG | A3 D | Gedc |$ BAGF | GGAF | D2 D | %13
w: |||||||||||||
"^chorus" G3/2 G/ G G | A3 A | BABc | d3 d | g3 f ed |$ c e d c | BG3/2AG/ | G3 z | D | %22
w: ||||||||And|
 e e"^Last verse he sang thus" c e | ddBd | (c/ c/) BAG | GF"^chorus as before"E"_&c." D | %26
w: ev- ery lad shall|&c. * * *|||
T:Jolly Wagoner - Parsons
F:http://www.vwml.org/record/SBG/1/2/174
Z:Original Sibelius transcriptions by M. & S. Graebe
M:4/8
I:linebreak $
K:F
V:1 treble nm="P1"
V:1
 C | F d c B | A3/2 G/ F E | F3/2 G/ A =B | c3 C | A3/2 A/ G A | B A G d |$ d c A3/2 G/ | G3 c | %9
 d3/2 c/ B d | c3/2 B/ A c | B A G F | (FED) C | F3/2 E/ F D |$ G3 G | A3/2 G/ A B | c3 c | %17
 f3/2 e/ f d | c3/2 d/ c B | A F GE | F2 | %21
T:Jolly Wagoner - FWB harmony Parsons
F:http://www.vwml.org/record/SBG/1/2/174
Z:Original Sibelius transcriptions by M. & S. Graebe
L:1/8
M:4/8
I:linebreak $
K:F
V:1 treble nm="Piano" snm="Pno."
V:2 treble 
V:3 bass 
V:4 bass 
V:1
 c | F3/2 A/ c f | fe z d | c3/2 d/ c B |$ AG z G | A3/2 c/ f3/2 a/ | a3/2 g/ f d | c f G c | %8
 F3 x | %9
V:2
 E | F>A AF | c2 z E | F>E FG |$ FE z E | F>c c3/2 z/ | F>G AB | AA Gc | F3 z | %9
V:3
 G, | A,>A, A,A, | B,3 B, | C>B, CD |$ C2 z C | F>E F>D | CD CB, | CA, B,G, | A,2 z C | %9
V:4
 C, | F,>E, F,D, | G,3 G, | A,>G, A,B, |$ C2 z C | F,>G, A,>=B, | C_B, A,G, | A,F, G,G, | F, x x2 | %9



